img/quality-features-5.svg

<svg width="34" height="40" viewBox="0 0 34 40" fill="none" xmlns="http://www.w3.org/2000/svg">
<path d="M6.65304 40C6.53188 39.9996 6.41198 39.9752 6.3002 39.9285C6.18842 39.8817 6.08697 39.8135 6.00162 39.7275C5.91627 39.6415 5.84868 39.5396 5.80276 39.4275C5.75685 39.3154 5.73351 39.1951 5.73404 39.074V36.8831C5.73218 36.1494 6.02143 35.4449 6.5383 34.9243C7.05517 34.4037 7.75745 34.1094 8.49106 34.106H10.2V29.8589C10.1991 29.6521 10.2675 29.4513 10.3944 29.2881C10.5214 29.1249 10.6994 29.0089 10.9001 28.959H10.912C11.9085 28.7252 12.7863 28.1379 13.3824 27.3059C13.9784 26.4739 14.2523 25.4537 14.153 24.4351C11.8782 23.3692 10.0107 21.5939 8.83102 19.376C8.35852 18.5711 7.94384 17.7338 7.59006 16.8701C5.60328 15.776 3.89095 14.2449 2.58237 12.3923C1.27378 10.5398 0.40311 8.41422 0.0360399 6.17603C-0.0298512 5.76528 -0.00594955 5.3452 0.106108 4.94458C0.218166 4.54396 0.415713 4.17218 0.685149 3.85522C0.954585 3.53827 1.28948 3.2835 1.66684 3.1084C2.04419 2.9333 2.455 2.84217 2.871 2.84106H5.64603V1.96704C5.64443 1.44879 5.8486 0.951113 6.21365 0.583252C6.5787 0.215391 7.0748 0.00726494 7.59305 0.00488281H26.407C26.9253 0.00726489 27.4216 0.21542 27.7868 0.583252C28.152 0.951084 28.3563 1.4487 28.355 1.96704V2.84106H31.1291C31.545 2.84234 31.9557 2.93373 32.333 3.10889C32.7102 3.28404 33.0451 3.5388 33.3145 3.85571C33.5839 4.17263 33.7815 4.54403 33.8936 4.94458C34.0057 5.34513 34.0297 5.7653 33.964 6.17603C33.597 8.41411 32.7265 10.5396 31.4181 12.3921C30.1097 14.2446 28.3976 15.7759 26.411 16.8701C26.0566 17.7337 25.6416 18.571 25.169 19.376C24.0016 21.5625 22.1689 23.3209 19.936 24.397C19.8263 25.4215 20.0949 26.4508 20.6913 27.291C21.2876 28.1313 22.1707 28.7245 23.174 28.959H23.185C23.3869 29.0076 23.5666 29.1228 23.6949 29.2861C23.8231 29.4494 23.8926 29.6512 23.8921 29.8589V34.106H25.592C26.3257 34.1094 27.0281 34.4037 27.5451 34.9243C28.0622 35.4449 28.3516 36.1493 28.35 36.8831V39.074C28.3504 39.1952 28.3269 39.3154 28.2809 39.4275C28.2349 39.5396 28.1672 39.6416 28.0818 39.7275C27.9964 39.8135 27.8948 39.882 27.783 39.9287C27.6712 39.9755 27.5512 39.9996 27.43 40H6.65304ZM7.57205 36.8821V38.1479H26.516V36.8821C26.5166 36.6376 26.4201 36.4029 26.2478 36.2295C26.0755 36.0561 25.8415 35.9581 25.597 35.957H8.49106C8.24678 35.9581 8.01287 36.0558 7.84061 36.229C7.66834 36.4022 7.57178 36.6368 7.57205 36.8811V36.8821ZM12.034 34.105H22.055V30.7839H12.034V34.105ZM15.0641 28.115C14.8804 28.404 14.673 28.6772 14.444 28.9319H19.653C18.6582 27.8315 18.097 26.4073 18.074 24.9241C17.7184 24.9766 17.3594 25.0019 17 25C16.6695 25 16.3394 24.9771 16.0121 24.9319C15.9989 26.0602 15.6705 27.1625 15.0641 28.114V28.115ZM7.48404 1.96191V6.39111C7.39299 10.5894 8.40208 14.7384 10.411 18.426C12.211 21.476 14.55 23.155 17 23.155C19.45 23.155 21.79 21.477 23.589 18.426C25.598 14.7384 26.6071 10.5894 26.516 6.39111V1.96191C26.5162 1.94738 26.5134 1.93314 26.508 1.91968C26.5025 1.90622 26.4944 1.89387 26.4842 1.88354C26.4739 1.87322 26.4617 1.86497 26.4483 1.85938C26.4349 1.85378 26.4206 1.85107 26.406 1.85107H7.59305C7.56405 1.85134 7.53631 1.86294 7.5159 1.88354C7.49548 1.90415 7.48404 1.93194 7.48404 1.96094V1.96191ZM28.354 6.39111C28.3638 8.96447 28.0343 11.5277 27.3741 14.0149C29.9194 11.9867 31.6207 9.08558 32.148 5.87402C32.1721 5.72938 32.1641 5.58113 32.1245 5.43994C32.0849 5.29875 32.0148 5.16795 31.919 5.05688C31.822 4.94117 31.7008 4.8481 31.564 4.78418C31.4272 4.72026 31.2781 4.68717 31.127 4.68701H28.3531L28.354 6.39111ZM2.07901 5.05591C1.98313 5.16709 1.91296 5.29808 1.87338 5.43945C1.8338 5.58083 1.82579 5.72923 1.85 5.87402C2.37773 9.08569 4.07943 11.9868 6.62503 14.0149C5.96509 11.5276 5.63592 8.96443 5.64603 6.39111V4.69092H2.871C2.72062 4.69042 2.57195 4.72278 2.43533 4.78564C2.29872 4.84851 2.17749 4.94039 2.08005 5.05493L2.07901 5.05591ZM13.5511 16.1121C13.4121 16.0101 13.3043 15.8713 13.2398 15.7114C13.1754 15.5516 13.1567 15.3769 13.186 15.207L13.659 12.4241L11.652 10.4541C11.5292 10.3329 11.4425 10.18 11.4016 10.0125C11.3606 9.84488 11.367 9.66903 11.42 9.50488C11.4724 9.34087 11.5696 9.19503 11.7008 9.0835C11.8319 8.97196 11.9917 8.89934 12.162 8.87402L14.935 8.46802L16.175 5.93701C16.25 5.78209 16.3671 5.65149 16.513 5.56006C16.6588 5.46863 16.8274 5.42017 16.9995 5.42017C17.1717 5.42017 17.3403 5.46863 17.4861 5.56006C17.6319 5.65149 17.749 5.78209 17.824 5.93701L19.063 8.46802L21.836 8.87402C22.0066 8.89979 22.1665 8.97252 22.2979 9.08423C22.4294 9.19594 22.527 9.34218 22.5799 9.50635C22.6328 9.67052 22.6388 9.84626 22.5973 10.0137C22.5558 10.1811 22.4684 10.3336 22.345 10.4541L20.339 12.4241L20.812 15.207C20.8411 15.3769 20.8224 15.5514 20.7579 15.7112C20.6934 15.871 20.5858 16.0099 20.4471 16.1121C20.2904 16.2268 20.1012 16.2888 19.907 16.2891C19.7581 16.2896 19.6114 16.2532 19.48 16.1831L17 14.8689L14.52 16.1831C14.3685 16.2633 14.1975 16.2992 14.0265 16.2869C13.8555 16.2745 13.6914 16.2142 13.553 16.113L13.5511 16.1121ZM17.4261 13.0029L18.686 13.6699L18.445 12.2571C18.4199 12.1093 18.4309 11.9575 18.4771 11.8149C18.5232 11.6723 18.6032 11.543 18.7101 11.438L19.73 10.438L18.3221 10.2319C18.1742 10.2103 18.034 10.1529 17.9134 10.0647C17.7928 9.97652 17.6955 9.86036 17.63 9.72607L17 8.43994L16.37 9.72607C16.3046 9.86036 16.2073 9.97652 16.0867 10.0647C15.9661 10.1529 15.8258 10.2103 15.678 10.2319L14.269 10.438L15.289 11.438C15.3958 11.5431 15.4755 11.6726 15.5215 11.8152C15.5674 11.9578 15.5782 12.1094 15.553 12.2571L15.313 13.6699L16.573 13.0029C16.7047 12.9331 16.8515 12.8967 17.0005 12.8967C17.1496 12.8967 17.2963 12.9331 17.428 13.0029H17.4261Z" fill="#3DABDD"/>
</svg>

<svg width="34" height="40" fill="none" xmlns="http://www.w3.org/2000/svg"><path d="M6.653 40a.923.923 0 0 1-.919-.926v-2.19a2.77 2.77 0 0 1 2.757-2.778H10.2v-4.247a.923.923 0 0 1 .7-.9h.012a4.226 4.226 0 0 0 3.241-4.524 11.605 11.605 0 0 1-5.322-5.059 19.699 19.699 0 0 1-1.24-2.506A14.975 14.975 0 0 1 .035 6.176a2.879 2.879 0 0 1 2.835-3.335h2.775v-.874A1.956 1.956 0 0 1 7.593.005h18.814a1.957 1.957 0 0 1 1.948 1.962v.874h2.774a2.88 2.88 0 0 1 2.835 3.335 14.975 14.975 0 0 1-7.553 10.694c-.354.864-.77 1.701-1.242 2.506a11.68 11.68 0 0 1-5.233 5.021 4.223 4.223 0 0 0 3.238 4.562h.011a.923.923 0 0 1 .707.9v4.247h1.7a2.77 2.77 0 0 1 2.758 2.777v2.191a.923.923 0 0 1-.92.926H6.653Zm.92-3.118v1.266h18.943v-1.266a.923.923 0 0 0-.919-.925H8.491a.923.923 0 0 0-.919.924v.001Zm4.461-2.777h10.021v-3.321H12.034v3.321Zm3.03-5.99a6.181 6.181 0 0 1-.62.817h5.209a6.118 6.118 0 0 1-1.579-4.008A7.096 7.096 0 0 1 17 25c-.33 0-.66-.023-.988-.068a6.053 6.053 0 0 1-.948 3.182v.001ZM7.484 1.962v4.43a24.066 24.066 0 0 0 2.927 12.034c1.8 3.05 4.139 4.729 6.589 4.729s4.79-1.678 6.589-4.729a24.065 24.065 0 0 0 2.927-12.035v-4.43a.11.11 0 0 0-.068-.102.11.11 0 0 0-.042-.008H7.593a.11.11 0 0 0-.109.11Zm20.87 4.43a29.28 29.28 0 0 1-.98 7.623 13.13 13.13 0 0 0 4.774-8.141 1 1 0 0 0-.229-.817 1.035 1.035 0 0 0-.792-.37h-2.774l.001 1.704ZM2.079 5.055a1 1 0 0 0-.229.818 13.13 13.13 0 0 0 4.775 8.14c-.66-2.486-.99-5.05-.979-7.623v-1.7H2.871a1.034 1.034 0 0 0-.791.364h-.001Zm11.472 11.056a.927.927 0 0 1-.365-.905l.473-2.783-2.007-1.97a.93.93 0 0 1 .51-1.58l2.773-.406 1.24-2.531a.916.916 0 0 1 1.649 0l1.239 2.531 2.773.406a.927.927 0 0 1 .509 1.58l-2.006 1.97.473 2.783a.928.928 0 0 1-.365.905.917.917 0 0 1-.967.071L17 14.87l-2.48 1.314a.914.914 0 0 1-.967-.07h-.002Zm3.875-3.11 1.26.668-.241-1.413a.93.93 0 0 1 .265-.819l1.02-1-1.408-.206a.917.917 0 0 1-.692-.506L17 8.44l-.63 1.286a.917.917 0 0 1-.692.506l-1.409.206 1.02 1a.93.93 0 0 1 .264.82l-.24 1.412 1.26-.667a.913.913 0 0 1 .855 0h-.002Z" fill="#3DABDD"/></svg>
